X:104
T: WIR TRETEN AUF DIE KETTE
N: K2096
O: Europa, Mitteleuropa, Deutschland, Kassel
R: Kinder - Lied, Reigen, Tanz - Spiel
M: 2/4
L: 1/16
K: F
C2 | F2G2A2B2 | c4f4
A2A2G2G2 | F4z2
C2 | F2G2A2B2 | c4f4
A2A2G2G2 | F4z4
c2c2B2B2 | A2A2G4
c2c2B2B2 | A4z4
c2c2c2c2 | d2d2d4
B2B2B2B2 | c2c2c2
d2 | c3BA2d2 | c3BA2
A2 | G2G2G2G2 | F4z4

